X: 10
T: the Hum Drum
R: reel
M: 2/4
L: 1/8
Z: 2010,2014 John Chambers <jc:trillian.mit.edu>
B: Longman ed. "Twenty Four Country Dances", p.29 London 1770
K: D
|: ((3DEF) ((3EFG) | FA dg | fe/d/ cd | e/d/c/B/A/G/F/E/ |\
   ((3DEF) ((3EFG) | FA dg | f/a/f/d e/g/e/c/ | d2 D2 :|
|: ((3FGA) ((3Bcd) | AG FE/D/ | ((3def) ((3efg) | fe/d/ c/B/A |\
   Gb/a/ bG | Fa/g/ aF | Eg f/e/d/c/ | d2 D2 :|
% - - - - - - - - - - - - - - - - - - - - - - - - -
%%begintext align
%% Set all six Change sides with your partners .|
%% set all six again and return to your own places .|.
%% each Cu: Lock Arms and follow each other round :|.
%% first Cu: slip behind the 2d Cu: and Right and Left with the Top :|:
%%endtext
% - - - - - - - - - - - - - - - - - - - - - - - - -
